packages/core/src/svgs/tokens/branded/YDF.svg

<svg width="24" height="24" viewBox="0 0 24 24" fill="none" xmlns="http://www.w3.org/2000/svg">
<path d="M11.9976 8.25525C12.4947 8.25525 12.9714 8.05777 13.3229 7.70627C13.6744 7.35477 13.8719 6.87803 13.8719 6.38094C13.8719 5.88385 13.6744 5.40711 13.3229 5.05561C12.9714 4.70411 12.4947 4.50665 11.9976 4.50665C11.5005 4.50665 11.0238 4.70411 10.6722 5.05561C10.3208 5.40711 10.1233 5.88385 10.1233 6.38094C10.1233 6.87803 10.3208 7.35477 10.6722 7.70627C11.0238 8.05777 11.5005 8.25525 11.9976 8.25525Z" fill="url(#paint0_linear_364_2954)"/>
<path d="M11.9974 7.6304C12.3288 7.6304 12.6466 7.49876 12.881 7.26442C13.1152 7.0301 13.2469 6.71227 13.2469 6.38087C13.2469 6.04948 13.1152 5.73165 12.881 5.49732C12.6466 5.26299 12.3288 5.13135 11.9974 5.13135C11.6661 5.13135 11.3481 5.26299 11.1139 5.49732C10.8794 5.73165 10.7478 6.04948 10.7478 6.38087C10.7478 6.71227 10.8794 7.0301 11.1139 7.26442C11.3481 7.49876 11.6661 7.6304 11.9974 7.6304Z" fill="url(#paint1_linear_364_2954)"/>
<path d="M2.52611 7.37434L2.48862 7.42432C2.29313 7.67699 2.15228 7.96755 2.07502 8.27753C1.99777 8.58753 1.98577 8.91019 2.03982 9.22505C2.09386 9.53993 2.21276 9.84009 2.38896 10.1066C2.56517 10.3731 2.79484 10.6 3.06341 10.7731L7.89283 14.0468C8.44872 14.421 9.12458 14.5734 9.78721 14.4738C10.4498 14.3744 11.0512 14.0303 11.4728 13.5095L11.5102 13.4596C11.7057 13.2068 11.8466 12.9163 11.9238 12.6064C12.0011 12.2963 12.013 11.9737 11.9591 11.6588C11.905 11.3439 11.7861 11.0438 11.61 10.7773C11.4337 10.5108 11.204 10.2838 10.9354 10.1108L6.10601 6.83705C5.55013 6.46291 4.87428 6.31055 4.21165 6.41C3.54901 6.50945 2.94766 6.85351 2.52611 7.37434Z" fill="url(#paint2_linear_364_2954)"/>
<path d="M15.6332 22C15.352 22 15.0834 21.9251 14.8523 21.7939C14.622 21.6611 14.4336 21.4663 14.3087 21.2316L12.0595 16.9207C11.8929 16.6043 11.8074 16.2514 11.8106 15.8938C11.8138 15.5361 11.9058 15.1849 12.0783 14.8715L17.1951 5.51251C14.646 10.1733 14.4462 12.5412 16.1955 15.8899L17.7386 18.8388C18.5071 20.2944 17.3638 22 15.6332 22Z" fill="url(#paint3_linear_364_2954)"/>
<path d="M21.9933 7.99274C21.9936 8.03931 21.9809 8.08506 21.9567 8.1248C21.9324 8.16454 21.8975 8.1967 21.8558 8.21766C21.8124 8.24079 21.7637 8.25237 21.7144 8.25128C21.6653 8.25018 21.6172 8.23645 21.5748 8.21141L20.7126 7.63038L16.2018 15.8835C14.4525 12.5348 14.6398 10.167 17.1951 5.50618L17.2826 5.35623L16.5454 4.86892C16.5292 4.83952 16.519 4.80716 16.5157 4.77376C16.5123 4.74036 16.5157 4.70663 16.5256 4.67456C16.5355 4.64248 16.5517 4.61275 16.5734 4.58709C16.595 4.56145 16.6216 4.54044 16.6515 4.52529L21.4873 2.03248C21.5277 2.01115 21.5727 2 21.6185 2C21.6641 2 21.7092 2.01115 21.7497 2.03248C21.8372 2.08247 21.9933 2.15744 21.9933 2.25115V7.99274Z" fill="url(#paint4_linear_364_2954)"/>
<defs>
<linearGradient id="paint0_linear_364_2954" x1="12.0002" y1="2.00009" x2="12.0002" y2="22" gradientUnits="userSpaceOnUse">
<stop stop-color="#EB508F"/>
<stop offset="1" stop-color="#FBAB1F"/>
</linearGradient>
<linearGradient id="paint1_linear_364_2954" x1="12" y1="2.00002" x2="12" y2="22" gradientUnits="userSpaceOnUse">
<stop stop-color="#CE427F"/>
<stop offset="1" stop-color="#642F1E"/>
</linearGradient>
<linearGradient id="paint2_linear_364_2954" x1="3.87179" y1="4.30904" x2="21.8872" y2="16.0258" gradientUnits="userSpaceOnUse">
<stop stop-color="#E1479A"/>
<stop offset="1" stop-color="#54459C"/>
</linearGradient>
<linearGradient id="paint3_linear_364_2954" x1="6.65665" y1="11.0111" x2="8.71355" y2="21.9938" gradientUnits="userSpaceOnUse">
<stop stop-color="#FCB415"/>
<stop offset="1" stop-color="#F3785F"/>
</linearGradient>
<linearGradient id="paint4_linear_364_2954" x1="21.0561" y1="2.94465" x2="15.1209" y2="15.7523" gradientUnits="userSpaceOnUse">
<stop stop-color="#E0479A"/>
<stop offset="1" stop-color="#5A459C"/>
</linearGradient>
</defs>
</svg>

<svg xmlns="http://www.w3.org/2000/svg" width="24" height="24" fill="none" viewBox="0 0 24 24">
    <path fill="url(#YDF__a)" d="M11.998 8.255a1.874 1.874 0 1 0 0-3.748 1.874 1.874 0 0 0 0 3.748"/>
    <path fill="url(#YDF__b)" d="M11.997 7.63a1.25 1.25 0 1 0 0-2.499 1.25 1.25 0 0 0 0 2.5"/>
    <path fill="url(#YDF__c)" d="m2.526 7.374-.037.05a2.305 2.305 0 0 0 .574 3.35l4.83 3.273a2.68 2.68 0 0 0 3.58-.538l.037-.05a2.306 2.306 0 0 0-.575-3.348L6.106 6.837a2.68 2.68 0 0 0-3.58.537"/>
    <path fill="url(#YDF__d)" d="M15.633 22c-.281 0-.55-.075-.78-.206a1.4 1.4 0 0 1-.544-.562l-2.25-4.311a2.16 2.16 0 0 1 .02-2.05l5.116-9.358c-2.549 4.66-2.749 7.028-1 10.377l1.544 2.949c.768 1.455-.375 3.161-2.106 3.161"/>
    <path fill="url(#YDF__e)" d="M21.993 7.993a.25.25 0 0 1-.137.225.29.29 0 0 1-.281-.007l-.862-.58-4.511 8.252c-1.75-3.348-1.562-5.716.993-10.377l.088-.15-.738-.487a.25.25 0 0 1 .028-.282.3.3 0 0 1 .078-.062l4.836-2.493a.28.28 0 0 1 .263 0c.087.05.243.125.243.22z"/>
    <defs>
        <linearGradient id="YDF__a" x1="12" x2="12" y1="2" y2="22" gradientUnits="userSpaceOnUse">
            <stop stop-color="#EB508F"/>
            <stop offset="1" stop-color="#FBAB1F"/>
        </linearGradient>
        <linearGradient id="YDF__b" x1="12" x2="12" y1="2" y2="22" gradientUnits="userSpaceOnUse">
            <stop stop-color="#CE427F"/>
            <stop offset="1" stop-color="#642F1E"/>
        </linearGradient>
        <linearGradient id="YDF__c" x1="3.872" x2="21.887" y1="4.309" y2="16.026" gradientUnits="userSpaceOnUse">
            <stop stop-color="#E1479A"/>
            <stop offset="1" stop-color="#54459C"/>
        </linearGradient>
        <linearGradient id="YDF__d" x1="6.657" x2="8.714" y1="11.011" y2="21.994" gradientUnits="userSpaceOnUse">
            <stop stop-color="#FCB415"/>
            <stop offset="1" stop-color="#F3785F"/>
        </linearGradient>
        <linearGradient id="YDF__e" x1="21.056" x2="15.121" y1="2.945" y2="15.752" gradientUnits="userSpaceOnUse">
            <stop stop-color="#E0479A"/>
            <stop offset="1" stop-color="#5A459C"/>
        </linearGradient>
    </defs>
</svg>
